X: 1250
T: Kesme Mutrıb Nağmeni
C: Ahmet Avni Konuk
O: Turkey
F: http://compmusic.upf.edu/node/140
N: sevk-icedid--kupe--musemmen--kesme--ahmet_avni_konuk
N: makam= sevk-icedid
N: form= kupe
N: usul= musemmen = 8/8
M: 8/8
L: 1/16
K: C _B _7/8e ^f ^c
Q: 1/4=96
%%MIDI tuningsystem comma53
g4 a2a4ab abag  | a=c'b2 abag gbag fed2  | 
w:  Kes me  mut rıb   |  nağ *  *  me *  ni  *  *  *  gel  | 
d4 d2fe eded cdc2  | fga2 gffe eddc d2z2  | 
w:  sin  di le  *  *  *  Şevk_  |  i  *  *  Ce *  dîd    | 
d4 a2ag {a}gag2 =f2=e2  | d=ed2 e=fed =c_2/4BA2 d4  | \
w:  Ol sun  ehl_ *  *  *  *  i   |  mec *  *  li *  sin  *  *  *  müs  | 
d=c_2/4B2 c2d2 e2d2 c2_7/8B2  | 
w:  tağ *  *  rak_ ı  *  zevk_  | 
B4 BAGA BB/A/A4z2  | |


